X:5
T:Wise Maid, The
C:Johnny Doherty ()
D:"Cooley", track 1
R:reel
M:4/4
K:D
DE|:F3 F FEDE|FAAB AFED|d2 eg fdec|dBAF BE EG|
F3 F FEDE|FAAB AFED|d2 eg fdec|dBAG FD DE|
F3 F FEDE|FAAB AFED|d2 eg fdec|dBAF BE EG|
F2 {A}F=F FEDE|FAAB AFED|d2 eg fdec|dBAG FD ~D2|
~d2 AG FDFA|dfaf gfeg|~f2 df ~e2 ce|dfed cAAA|
BEGB ADFA|dfaf gfec|df ec dBAG|FAEA FD DD|
~d2 AG FDFA|dfaf gfeg|~f2 df ~e2 ce|dfed cAAA|
BEGB ADFA|dfaf gfec|df ec dBAG|F2(3EGE D3E:|
